!!!COM:  Endresen, R. W.
!!!OTL:  Supplementary Study No. 11
!!!ONB:  Royal Conservatory of Music Grade 2
!!!YEC:  Copyright 2001, Joy Ollen
!!!YEM:  Rights to all derivative electronic formats reserved.
!! [Moderato]
**kern	**dynam
*M90	*
*clefG2	*
*k[b-]	*
*M2/4	*
=-	=-
8cc	mp
=1	=1
(8a^	.
8cc)	.
8cc'	.
8cc'	.
=2	=2
(8dd^	.
8cc)	.
8cc'x	.
8cc'x	.
! All further staccato markings have been added to follow the slurring and staccato patterns established in the first measure.	!
=3	=3
(8ff	.
8cc)	.
(8gg	.
8cc)	.
=4	=4
(4aa	.
8ff)	.
8cc	.
=5	=5
(8b-^	.
8dd)	.
8dd'	.
8dd'	.
=6	=6
(8ee^	.
8dd)	.
8dd'	.
8dd'	.
=7	=7
(8gg	.
8dd)	.
(8aa	.
8dd)	.
=8	=8
(4bb-	.
8gg)	.
8ff	.
=9	=9
(8ee^	mf
8gg)	.
8gg'	.
8ee'	.
=10	=10
(8ff^	.
8aa)	.
8cc	.
8r	.
=11	=11
(8ee	.
8gg)	.
8gg'	.
8ee'	.
=12	=12
(8ff	.
8aa)	.
8ccc'	.
8cc'	.
=13	=13
(8a^	.
8cc)	.
8cc'	.
8cc'	.
=14	=14
(8b-^	.
8dd)	.
8dd'	.
8dd'	.
=15	=15
(8cc^	.
8ee)	.
8ee'	.
8ee'	.
=16	=16
4ff	.
4r	.
=17	=17
*k[bn]	*
.	f
4ee^	.
4gg^	.
=18	=18
4.dd^	.
8ee	p
=19	=19
(8ff	.
8dd)	.
8aa'	.
8bb'	.
=20	=20
(x8cc	.
8ee)x	.
8g	.
8r	.
=21	=21
4ee^	f
4gg^	.
=22	=22
4.dd^	.
8ee	p
=23	=23
(8ff	.
8dd)	.
8b'	.
8g'	.
=24	=24
4.cc	.
8r	.
=25	=25
4b	mf
4ee	.
=26	=26
4.cc	.
8a	.
=27	=27
(8b	.
8dd)	.
8cc'	.
8b'	.
=28	=28
(8a	.
8cc)	.
8b'	.
8a'	.
=29	=29
4b	.
4ee	.
=30	=30
8cc	.
8b	.
8a	.
8b	.
=31	=31
(8cc	.
8dd)	<
8dd'	(
8ff#	(
=32	=32
4gg^	f
4g^	.
=33	=33
4ee^	.
4gg^	.
=34	=34
4.dd^	.
8ee	mp
=35	=35
(8ff	.
8dd)	.
8a'	.
8b'	.
=36	=36
(8cc	.
8ee)	.
8gg'	.
8ff'	.
=37	=37
(8ee^	.
8gg)	.
8gg'	.
8gg'	<
=38	=38
(8ff^	(
8aa)	(
8aa'	(
8aa'	(
=39	=39
(16gg^	f
16aa	.
16bb	.
16aa	.
16gg	.
16ff	.
16ee	.
16dd)	.
=40	=40
4cc^	.
4ccc^	.
==	==
*-	*-
